X:240
T: Ringeltanz
N: A0286
O: Europa, Mitteleuropa, Deutschland
N: Geistliche Ringeltentze 1550 No. 1
R: Romanze, Ballade, Lied
M: 3/2
L: 1/4
K: F
F2 | F4F2 | E3FG2 | F2D4 | C4F2 | F2D4 | C4
C2 | G4G2 | A4G2 | F2E2D2 | E4z2
C2D2E2 | F4z2 | C2D2E2 | F4

